X: 02080
T: MICHAEL'S PIG
C: Bob McQuillen July'74
B: Bob's Note Book 1&2 #80
%R: reel
Z: 2019 John Chambers <jc:trillian.mit.edu>
M: C
L: 1/8
K: D
AG \
| FABA GBAG | FAde d2dc | BcdB AFDE | F2E2 E2AG |
| FABA GBAG | FAde dAFA | BdcB AFEG | F2D2 D2 :|
|: AG \
| FAde fdfd | ABde fdfd | efge efed | c2A2 A2AG |
| FAde fdfd | ABde fdfd | gfed cdeg | f2d2 d2 :|
%%begintext align
%% For Anacher [?]
%%endtext

%%sep 1 1 500

%%sep 1 1 500

